X:1
T:Title
%%score 1 2
L:1/8
Q:1/4=77
M:2/4
K:Bb
V:1 treble nm="Grand Piano, Soprano"
V:2 bass nm="Choir Pad, Segovia, M. W. Hanchett"
V:1
 [DF][Fd] [Fd][Ec] | [Ec][DB] [DB][FA] | [EG][E^F] [EG][EA] | [EB][Gc] [^Fd]2 | [DF][Fd] [Fd][Ec] | %5
w: By~Milton~Waldo~Hanchett,~1873 * * *|||||
 [Ec][DB] [DB][FA] | [EG][EA] [EB][Ec] | [EF][EA] [DB]2 | [EB]>[EB] [EB][EB] | [EB][EG] [EB][EG] | %10
w: |||||
 [DF]>[EG] [DF][Fd] | [Ec][DB] [Fc]2 | [^Fd]>[Fd] [Fd][FA] | [Dc][DB] [FA][EG] | %14
w: ||||
 [DF][DB] [EA][DB] | [Fd][Ec] [DB]2- | [DB]4 |] %17
w: |||
V:2
 [B,,B,][B,,B,] [B,,B,][B,,F,] | [B,,F,][B,,F,] [B,,F,][D,B,] | [E,B,][E,B,] [E,B,][E,^F,] | %3
 [E,G,][E,G,] [D,A,]2 | [B,,B,][B,,B,] [B,,B,][B,,F,] | [B,,F,][B,,F,] [B,,F,][D,B,] | %6
 [E,B,][E,^F,] [E,G,][E,G,] | [F,A,][F,C] [B,,B,]2 | [E,G,]>[E,G,] [E,G,][E,G,] | %9
 [E,G,][E,B,] [E,G,][E,B,] | [B,,B,]>[B,,B,] [B,,B,][B,,B,] | [F,A,][G,B,] [F,A,]2 | %12
 [D,A,]>[D,A,] [D,A,][D,A,] | [G,B,][G,B,] [E,B,][E,B,] | [F,B,][F,B,] [F,C][F,B,] | %15
 [F,A,][F,A,] [B,,B,]2- | [B,,B,]4 |] %17

